X:1
T:Title
%%score { ( 1 3 4 ) | ( 2 5 ) }
L:1/8
M:9/8
K:Bb
V:1 treble nm="Grand Piano"
V:3 treble 
V:4 treble 
V:2 bass 
V:5 bass 
V:1
 z3 z3[Q:1/4=100] F3 | [DF]3- [DF][C=E][DF] [Fd][Fc][FB] | [EG]3 [GB]3 [FA]2 G | F3- FGF EFE | %4
 D6 [DF]3 | G3- G^FG cBG | [EG][DF][_D=E] [=DF]3 [Fd]3 | [=Ec]3- [Ec][EG][EA] [Ec][EB][EG] | %8
[M:3/4] F6 |[M:3/8] F3 |[M:9/8] .d6 z3 | A6 z3 | .e6 z3 | d6 z3 | z EE z ^FG cBG | %15
 [DF][FB]c d3 [Ge]2 [Fd] | c-[=Ec-][Ec-] cGB Adc |[M:3/4] [DB]6 |] %18
V:2
 z3 z3 [B,D]3 | [B,,B,]3- [B,,B,][B,,B,][B,,B,] [B,,B,][C,A,][D,B,] | %2
 [E,B,]3 [E,B,]3 [E,B,]2 [E,B,E] | [F,B,D]3- [F,B,D][F,B,E][F,B,D] [F,A,C][F,A,C][F,C] | %4
 [B,,F,B,]6 [B,,B,]3 | [E,B,E]3- [E,B,E][E,A,E][E,B,E] [E,G,E][E,G,E][E,B,E] | %6
 [B,,B,][B,,B,][B,,B,] [B,,B,]3 [B,,B,]3 | [C,B,]3- [C,B,][C,B,][C,A,] [C,G,][C,G,][C,B,] | %8
[M:3/4] [F,A,]6 |[M:3/8] [F,A,E]3 |[M:9/8] [B,,B,][D,B,][F,B,] B,3 z[K:treble] B[K:bass]B,, | %11
 [C,F,][C,F,][C,F,] [F,C]3 [F,A,]3 | [F,A,F][F,A,][F,A,] [F,A,]3 [F,CE]2 [F,A,] | %13
 [B,,B,][B,,B,][B,,B,] [B,,B,]3 [B,,B,]3 | [E,B,E][E,B,][E,B,] [E,B,]3 [E,G,E]2 [E,B,E] | %15
 [B,,B,][D,B,][K:treble][F,A,F] [B,F]3[K:bass] [B,,B,]2 [B,,B,] | %16
 [C,G,][C,G,][C,G,] [C,C]3 [F,A,F]2 [F,A,E] |[M:3/4] [B,,F,]6 |] %18
V:3
 x9 | x9 | x9 | x9 | x9 | x9 | x9 | x9 |[M:3/4] x6 |[M:3/8] x3 |[M:9/8] FFF z fd .[Dc]2 [B,DG] | %11
 EEE E3 F3 | z FF z dc AGF | FFF F3 [DF]3 | .G6 z3 | x9 | .=E3 E3 z3 |[M:3/4] x6 |] %18
V:4
 x9 | x9 | x9 | x9 | x9 | x9 | x9 | x9 |[M:3/4] x6 |[M:3/8] x3 |[M:9/8] z3 F3 z3 | x9 | z3 F3 z3 | %13
 x9 | z3 E3 z3 | x9 | x9 |[M:3/4] x6 |] %18
V:5
 x9 | x9 | x9 | x9 | x9 | x9 | x9 | x9 |[M:3/4] x6 |[M:3/8] x3 | %10
[M:9/8] z3 z3 .[B,,B,]3[K:treble][K:bass] | x9 | x9 | x9 | x9 | x2[K:treble] x4[K:bass] x3 | x9 | %17
[M:3/4] x6 |] %18

